assets/icons/glove.svg

<svg width="14" height="14" viewBox="0 0 14 14" fill="none" xmlns="http://www.w3.org/2000/svg">
<path d="M6.919 7.2239e-06C5.54947 0.00139139 4.21109 0.408771 3.07303 1.17065C1.93498 1.93253 1.04835 3.01471 0.525207 4.28039C0.00206727 5.54607 -0.134092 6.93844 0.133939 8.28149C0.40197 9.62454 1.06216 10.858 2.03106 11.8259C2.99995 12.7938 4.23406 13.4528 5.57738 13.7194C6.9207 13.9861 8.31293 13.8485 9.57808 13.3241C10.8432 12.7997 11.9245 11.912 12.6852 10.7732C13.446 9.63434 13.852 8.29554 13.852 6.92601C13.8524 6.01577 13.6733 5.11439 13.3249 4.27346C12.9766 3.43252 12.4658 2.66854 11.8218 2.02523C11.1779 1.38192 10.4134 0.871915 9.57208 0.524402C8.7308 0.17689 7.82924 -0.00130766 6.919 7.2239e-06ZM11.719 4.15601H9.676C9.4592 3.29806 9.13814 2.4699 8.72 1.69001C9.98344 2.12507 11.048 3.00045 11.719 4.15601ZM6.926 1.41301C7.50786 2.25246 7.95429 3.17806 8.249 4.15601H5.6C5.89564 3.17788 6.3431 2.25227 6.926 1.41301ZM1.565 8.31301C1.32481 7.40496 1.32481 6.45006 1.565 5.54201H3.906C3.84465 6.00122 3.81126 6.46374 3.806 6.92701C3.81126 7.39027 3.84465 7.85279 3.906 8.31201L1.565 8.31301ZM2.133 9.70001H4.177C4.39381 10.558 4.71487 11.3861 5.133 12.166C3.86786 11.7335 2.80215 10.8575 2.133 9.70001ZM4.177 4.15601H2.133C2.80215 2.99848 3.86786 2.12247 5.133 1.69001C4.71487 2.4699 4.39381 3.29806 4.177 4.15601ZM6.927 12.44C6.34403 11.6017 5.89624 10.6771 5.6 9.70001H8.246C7.95193 10.6767 7.50652 11.6013 6.926 12.44H6.927ZM8.548 8.31201H5.306C5.23754 7.8534 5.20045 7.39066 5.195 6.92701C5.20017 6.46334 5.23725 6.00058 5.306 5.54201H8.548C8.61675 6.00058 8.65384 6.46334 8.659 6.92701C8.65322 7.39068 8.6158 7.85343 8.547 8.31201H8.548ZM8.721 12.163C9.13914 11.3831 9.4602 10.5549 9.677 9.69701H11.72C11.0488 10.8528 9.98481 11.7282 8.721 12.163ZM9.947 8.31201C10.0084 7.85279 10.0417 7.39027 10.047 6.92701C10.0417 6.46374 10.0084 6.00122 9.947 5.54201H12.288C12.5282 6.45006 12.5282 7.40496 12.288 8.31301L9.947 8.31201Z" fill="white"/>
</svg>

<svg xmlns="http://www.w3.org/2000/svg" width="14" height="14" fill="none"><path fill="#fff" d="M6.919 0a6.926 6.926 0 1 0 .014 13.852A6.926 6.926 0 0 0 6.919 0m4.8 4.156H9.676A10.8 10.8 0 0 0 8.72 1.69a5.56 5.56 0 0 1 2.999 2.466M6.926 1.413a9.8 9.8 0 0 1 1.323 2.743H5.6a9.8 9.8 0 0 1 1.326-2.743m-5.361 6.9a5.4 5.4 0 0 1 0-2.771h2.341q-.092.69-.1 1.385.008.696.1 1.385zM2.133 9.7h2.044c.217.858.538 1.686.956 2.466a5.53 5.53 0 0 1-3-2.466m2.044-5.544H2.133a5.53 5.53 0 0 1 3-2.466 10.8 10.8 0 0 0-.956 2.466m2.75 8.284A9.8 9.8 0 0 1 5.6 9.7h2.646a9.8 9.8 0 0 1-1.32 2.74zm1.621-4.128H5.306a10 10 0 0 1-.111-1.385 10 10 0 0 1 .111-1.385h3.242q.104.689.111 1.385-.009.696-.112 1.385zm.173 3.851c.418-.78.74-1.608.956-2.466h2.043a5.56 5.56 0 0 1-2.999 2.466m1.226-3.851q.092-.69.1-1.385a11 11 0 0 0-.1-1.385h2.341c.24.908.24 1.863 0 2.771z"/></svg>
